public/payments/common/neteller.svg

<svg width="80" height="14" viewBox="0 0 80 14" fill="none" xmlns="http://www.w3.org/2000/svg">
<g clip-path="url(#clip0_124_2)">
<path d="M78.5359 1.06399C77.5165 0.356698 75.9735 -1.29731e-05 73.9511 -1.29731e-05H68.6545L66.6855 10.8255H59.7468L60.1928 8.36944H64.3725L64.8678 5.61087L60.6904 5.61696L61.1376 3.17183H65.443L66.0158 0.000618947H57.2726L55.4033 10.2693H52.1948L54.0767 7.88443e-05H49.5063L47.637 10.2688H44.5114L46.3951 7.88443e-05H41.8271L39.8556 10.8256H32.8671L33.3089 8.36954H37.5054L38.0013 5.62662L33.8088 5.62237L34.2536 3.17238H38.6072L39.1764 -0.000183105H11.9311L10.3803 8.57827L7.29205 -0.000183105H2.55018L-0.00195312 13.9998H4.52658L6.07133 5.1848L9.06813 13.9998H25.298L27.2713 3.17103H29.8096L27.8363 13.9998H70.5403L71.7785 7.16428L73.7812 13.9998H78.3122L76.2367 8.41434L76.7116 8.31087C77.7574 8.08382 78.5731 7.59626 79.1411 6.86523C79.7085 6.1275 79.9976 5.18035 79.9976 4.04265C79.9976 2.71813 79.5191 1.74362 78.5346 1.06318L78.5359 1.06399ZM21.3572 10.8255H14.4252L14.873 8.36944H19.221L19.7139 5.60304H15.4078L15.8225 3.17252H22.7444L21.3559 10.8255L21.3572 10.8255ZM74.8026 6.1099C74.347 6.4325 73.6864 6.58954 72.783 6.58954H71.8874L72.5744 2.83258H73.2332C73.9833 2.83258 74.5303 2.95432 74.9077 3.20266C75.2023 3.39744 75.5527 3.78276 75.5527 4.51136C75.5516 5.39275 75.1439 5.86631 74.8013 6.10979L74.8026 6.1099Z" fill="#83BA3B"/>
</g>
<defs>
<clipPath id="clip0_124_2">
<rect width="80" height="14" fill="white"/>
</clipPath>
</defs>
</svg>

<svg xmlns="http://www.w3.org/2000/svg" width="80" height="14" fill="none"><g clip-path="url(#a)"><path fill="#83BA3B" d="M78.54 1.06C77.52.36 75.97 0 73.95 0h-5.3L66.7 10.83h-6.94l.44-2.46h4.18l.5-2.76h-4.18l.45-2.44h4.3L66.02 0h-8.75L55.4 10.27h-3.2L54.07 0H49.5l-1.87 10.27H44.5L46.4 0h-4.57l-1.97 10.83h-7l.45-2.46h4.2l.5-2.74h-4.2l.44-2.46h4.36L39.18 0H11.93l-1.55 8.58L7.29 0H2.55L0 14h4.53l1.54-8.82 3 8.82H25.3l1.97-10.83h2.54L27.84 14h42.7l1.24-6.84 2 6.84h4.53l-2.07-5.59.47-.1a4.05 4.05 0 0 0 2.43-1.44c.57-.74.86-1.69.86-2.83 0-1.32-.48-2.3-1.47-2.98Zm-57.18 9.77h-6.93l.44-2.46h4.35l.5-2.77H15.4l.41-2.43h6.92l-1.38 7.66ZM74.8 6.1c-.45.32-1.11.48-2.02.48h-.9l.7-3.76h.65c.75 0 1.3.12 1.68.37.3.2.64.58.64 1.31 0 .88-.4 1.36-.75 1.6Z"/></g><defs><clipPath id="a"><path fill="#fff" d="M0 0h80v14H0z"/></clipPath></defs></svg>
